svg/300/outlined/file_download_off-fill.svg

<svg xmlns="http://www.w3.org/2000/svg" width="48" height="48" viewBox="0 -960 960 960"><path d="m808.384-86.771-93.615-93.23H237.694q-23.616 0-40.654-17.039-17.039-17.038-17.039-40.654V-363h45.384v125.306q0 4.616 3.846 8.463 3.847 3.846 8.463 3.846h431.692L525.385-369.386 480-323.385 314.31-489.076l35.23-34.23 34.618 34.618v-22.309L86.771-808.384l32.615-32.23 721.228 721.228-32.23 32.615ZM599.076-446.308l-32.614-33.23 46.614-45.614 32.614 32.23-46.614 46.614Zm-96.384-103.924-45.384-45.383v-184.384h45.384v229.767Zm277.307 287.461-45.384-45.383V-363h45.384v100.229Z"/></svg>

<svg xmlns="http://www.w3.org/2000/svg" width="48" height="48" viewBox="0 -960 960 960"><path d="M808.38-86.77 714.77-180H237.69q-23.61 0-40.65-17.04T180-237.69V-363h45.39v125.31q0 4.61 3.84 8.46 3.85 3.84 8.46 3.84h431.7l-144-144-45.39 46-165.69-165.69 35.23-34.23 34.62 34.62V-511L86.77-808.38l32.62-32.23 721.22 721.22-32.23 32.62Zm-209.3-359.54-32.62-33.23 46.62-45.61 32.61 32.23-46.61 46.61Zm-96.39-103.92-45.38-45.39V-780h45.38v229.77ZM780-262.77l-45.39-45.38V-363H780v100.23Z"/></svg>
